assets/images/about/teams_info_container.svg

<svg width="294" height="107" viewBox="0 0 294 107" fill="none" xmlns="http://www.w3.org/2000/svg">
<path d="M242 0C249.549 0 256.121 4.18302 259.525 10.3577C261.418 13.7913 264.616 16.7539 268.536 16.7539H286C290.418 16.7539 294 20.3356 294 24.7539V99C294 103.418 290.418 107 286 107H8C3.58172 107 0 103.418 0 99V24.7539C0 20.3356 3.58172 16.7539 8 16.7539H215.464C219.384 16.7539 222.582 13.7913 224.475 10.3577C227.879 4.18302 234.451 0 242 0Z" fill="#EBF5FB" fill-opacity="0.95"/>
<rect x="225" y="3" width="34" height="34" rx="17" fill="#3797D5"/>
<path d="M248.5 20C248.5 20.4375 248.156 20.75 247.75 20.75H242.75V25.75C242.75 26.1875 242.406 26.5 242 26.5C241.562 26.5 241.25 26.1875 241.25 25.75V20.75H236.25C235.812 20.75 235.5 20.4375 235.5 20C235.5 19.5938 235.812 19.25 236.25 19.25H241.25V14.25C241.25 13.8438 241.562 13.5 242 13.5C242.406 13.5 242.75 13.8438 242.75 14.25V19.25H247.75C248.156 19.25 248.5 19.5938 248.5 20Z" fill="white"/>
</svg>

<svg xmlns="http://www.w3.org/2000/svg" width="294" height="107" fill="none"><path fill="#EBF5FB" fill-opacity=".95" d="M242 0c7.549 0 14.121 4.183 17.525 10.358 1.893 3.433 5.091 6.396 9.011 6.396H286a8 8 0 0 1 8 8V99a8 8 0 0 1-8 8H8a8 8 0 0 1-8-8V24.754a8 8 0 0 1 8-8h207.464c3.92 0 7.118-2.963 9.011-6.396C227.879 4.183 234.451 0 242 0"/><rect width="34" height="34" x="225" y="3" fill="#3797D5" rx="17"/><path fill="#fff" d="M248.5 20a.74.74 0 0 1-.75.75h-5v5a.74.74 0 0 1-.75.75.72.72 0 0 1-.75-.75v-5h-5a.72.72 0 0 1-.75-.75.74.74 0 0 1 .75-.75h5v-5a.74.74 0 0 1 .75-.75.76.76 0 0 1 .75.75v5h5a.76.76 0 0 1 .75.75"/></svg>
